actions/scalable/quickopen-file.svg

<?xml version="1.0" encoding="UTF-8" standalone="no"?>
<!-- Created with Inkscape (http://www.inkscape.org/) -->

<svg
   xmlns:dc="http://purl.org/dc/elements/1.1/"
   xmlns:cc="http://creativecommons.org/ns#"
   xmlns:rdf="http://www.w3.org/1999/02/22-rdf-syntax-ns#"
   xmlns:svg="http://www.w3.org/2000/svg"
   xmlns="http://www.w3.org/2000/svg"
   xmlns:sodipodi="http://sodipodi.sourceforge.net/DTD/sodipodi-0.dtd"
   xmlns:inkscape="http://www.inkscape.org/namespaces/inkscape"
   width="22"
   height="22"
   id="svg3760"
   version="1.1"
   inkscape:version="0.48+devel r"
   sodipodi:docname="quickopen-file.svg">
  <defs
     id="defs3762" />
  <sodipodi:namedview
     id="base"
     pagecolor="#ffffff"
     bordercolor="#666666"
     borderopacity="1.0"
     inkscape:pageopacity="0.0"
     inkscape:pageshadow="2"
     inkscape:zoom="16"
     inkscape:cx="4.7008959"
     inkscape:cy="17.281114"
     inkscape:document-units="px"
     inkscape:current-layer="layer1"
     showgrid="true"
     fit-margin-top="0"
     fit-margin-left="0"
     fit-margin-right="0"
     fit-margin-bottom="0"
     inkscape:window-width="1366"
     inkscape:window-height="666"
     inkscape:window-x="-2"
     inkscape:window-y="25"
     inkscape:window-maximized="1"
     inkscape:showpageshadow="false"
     showguides="true">
    <inkscape:grid
       type="xygrid"
       id="grid4106"
       originx="-0.99998557px"
       originy="-1.0000252px" />
    <sodipodi:guide
       position="2.00001,19.99997"
       orientation="0,18"
       id="guide4229" />
    <sodipodi:guide
       position="20.00001,19.99997"
       orientation="18,0"
       id="guide4231" />
    <sodipodi:guide
       position="20.00001,1.99997"
       orientation="0,-18"
       id="guide4233" />
    <sodipodi:guide
       position="2.00001,1.99997"
       orientation="-18,0"
       id="guide4235" />
    <sodipodi:guide
       position="19.00001,2.99997"
       orientation="0,-16"
       id="guide4241" />
    <sodipodi:guide
       position="2.9999956,18.999992"
       orientation="6,0"
       id="guide4155" />
    <sodipodi:guide
       position="18.999996,12.999992"
       orientation="-6,0"
       id="guide4167" />
    <sodipodi:guide
       position="18.999996,18.999992"
       orientation="0,-6"
       id="guide4169" />
  </sodipodi:namedview>
  <metadata
     id="metadata3765">
    <rdf:RDF>
      <cc:Work
         rdf:about="">
        <dc:format>image/svg+xml</dc:format>
        <dc:type
           rdf:resource="http://purl.org/dc/dcmitype/StillImage" />
        <dc:title />
      </cc:Work>
    </rdf:RDF>
  </metadata>
  <g
     inkscape:label="Capa 1"
     inkscape:groupmode="layer"
     id="layer1"
     transform="translate(-551.28571,-607.64788)">
    <path
       style="fill:#666666;fill-rule:evenodd;stroke:none;stroke-width:1px;stroke-linecap:butt;stroke-linejoin:miter;stroke-opacity:1"
       d="M 7 3 L 3 9 L 5 9 L 5 14 L 9 8 L 7 8 L 7 3 z M 9 3 L 9 4 L 17 4 L 17 14 L 13 14 L 13 14.998047 L 13 17.998047 L 5 17.998047 L 5 15 L 4 15 L 4 19 L 5 19 L 13 19 L 14 19 L 14 18.988281 L 14.007812 19 L 18 15.007812 L 18 14.996094 L 18 14 L 18 4 L 18 3 L 9 3 z "
       transform="translate(551.28571,607.64788)"
       id="path4146" />
  </g>
</svg>

<svg height="22" width="22" xmlns="http://www.w3.org/2000/svg" xmlns:sodipodi="http://sodipodi.sourceforge.net/DTD/sodipodi-0.dtd" xmlns:inkscape="http://www.inkscape.org/namespaces/inkscape">
 <path d="m7 3l-4 6h2v5l4-6h-2v-5zm2 0v1h8v10h-4v0.998 3h-8v-2.998h-1v4h1 8 1v-0.012l0.008 0.012 3.992-3.992v-0.012-0.996-10-1h-9z" fill="#4d4d4d" fill-rule="evenodd" transform="matrix(1 0 0 1 0 0)"/>
</svg>
